source/img/icons/telegram.svg

<svg width="22" height="18" viewBox="0 0 22 18" xmlns="http://www.w3.org/2000/svg">
<path d="M21.4392 1.62225L18.2705 16.566C18.0312 17.6205 17.408 17.883 16.5222 17.3865L11.6937 13.8285L9.36424 16.0695C9.10624 16.3275 8.89099 16.5428 8.39374 16.5428L8.74099 11.6258L17.6892 3.54C18.0785 3.1935 17.6045 3.00075 17.0847 3.348L6.02224 10.314L1.25974 8.823C0.22399 8.49975 0.20524 7.78725 1.47574 7.29L20.1035 0.113253C20.966 -0.209997 21.7205 0.305253 21.4392 1.623V1.62225Z"/>
</svg>

<svg width="22" height="18" viewBox="0 0 22 18" xmlns="http://www.w3.org/2000/svg"><path d="m21.44 1.62-3.17 14.95c-.24 1.05-.86 1.31-1.75.82l-4.83-3.56-2.33 2.24c-.25.26-.47.47-.97.47l.35-4.91 8.95-8.09c.39-.35-.09-.54-.6-.2L6.01 10.32l-4.75-1.5C.22 8.5.21 7.8 1.48 7.3L20.1.11c.87-.32 1.62.2 1.34 1.51Z" fill="#fff"/></svg>
